places/22/user-desktop.svg

<svg width="22" version="1.1" xmlns="http://www.w3.org/2000/svg" viewBox="0 0 22 22" height="22">
<defs id="defs3051">
<style type="text/css" id="current-color-scheme">
.ColorScheme-Text {
color:#4d4d4d;
}
</style>
</defs>
<path style="fill:currentColor" d="m 3,3 v 16 h 16 v -16 h -16 z  m 1,1 h 14 v 14 h -14 v -14 z  m 1,11 v 2 h 12 v -2 h -12 z " class="ColorScheme-Text"/>
</svg>

<svg xmlns="http://www.w3.org/2000/svg" viewBox="0 0 22 22">
  <defs id="defs3051">
    <style type="text/css" id="current-color-scheme">
      .ColorScheme-Text {
        color:#4d4d4d;
      }
      </style>
  </defs>
    <path
       style="fill:currentColor;fill-opacity:1;stroke:none"
       d="M 3 3 L 3 19 L 19 19 L 19 3 L 3 3 z M 4 4 L 18 4 L 18 18 L 4 18 L 4 4 z M 5 16 L 5 17 L 17 17 L 17 16 L 5 16 z "
       class="ColorScheme-Text" />
</svg>
